!!!OTL: Der Jaeger und der Hase.
!!!OTL-incipit:GESTERN ABEND GING ICH AUS
!!!ARE: Europa, Mitteleuropa, Deutschland
!!!SCT: F0351A
!!!TXL: @@DE
!!!YEM: Copyright 1995, estate of Helmut Schaffrath.
**kern	**text	**text	**text
*ICvox	*	*	*
*clefG2	*	*	*
*M2/4	*	*	*
*k[f#]	*	*	*
*G:	*	*	*
=1	=1	=1	=1
!LO:TX:a:t=Einer. Das ʒweite Mal Alle.	!	!	!
!LO:TX:a:t=Mäßig.	!	!	!
{8d	1._Ge-	2._Biſt	3._Ar-
8g	-ſtern	du	-mes
8g	A-	nicht	Häs-
8g	-bend	der	-lein,
=2	=2	=2	=2
8f#	ging	Jä-	biſt
8a	ich	-gersmann,	ſo
4a}	aus,	.	blaß;
=3	=3	=3	=3
{8cc	ging	hetʒ'ſt	geh'
8a	wohl	auf	dem
8g	in	mich	Bau'r
8f#	den	die	nicht
=4	=4	=4	=4
8a	Wald	Hun-	mehr
8g	hin-	-de	in's
4g}	-aus;	an?	Gras,
=5	=5	=5	=5
{8d	1._Ge-	2._Biſt	3._Ar-
8g	-ſtern	du	-mes
8g	A-	nicht	Häs-
8g	-bend	der	-lein,
=6	=6	=6	=6
8f#	ging	Jä-	biſt
8a	ich	-gersmann,	ſo
4a}	aus,	.	blaß
=7	=7	=7	=7
{8cc	ging	hetʒ'ſt	geh'
8a	wohl	auf	dem
8g	in	mich	Bau'r
8f#	den	die	nicht
=8	=8	=8	=8
8a	Wald	Hun-	mehr
8g	hin-	-de	in's
4g}	-aus;	an?	Gras,
=9	=9	=9	=9
!LO:TX:a:t=Einer. Das ʒweite.	!	!	!
{8dd	kommt	Wenn	geh'
8b	ein	dein	dem
8b	Häs-	Windſpiel	Bau'r
8g	-lein	.	nicht
=10	=10	=10	=10
!LO:TX:a:t=Mal Alle.	!	!	!
8g	1._dicht	2._mich	3._mehr
8e	ʒu	er-	in's
4e}	mir,	-tappt,	Kraut,
=11	=11	=11	=11
{8cc	in	haſt	ſonſt
8b	dem	du,	be-
8a	ſchönen	Jä-	-ʒahlt
8g	.	-ger	mit
=12	=12	=12	=12
8f#	Wald-	mich	dei-
8e	-re-	erſchnappt.	-ner
4d}	-vier;	.	Haut;
=13	=13	=13	=13
{8d	kommt	Wenn	ſparſt
8g	das	ich	dir
8g	Häs-	an	man-
8g	-lein	mein	-che
=14	=14	=14	=14
8f#	dicht	Schickſal	Roth
8a	her-	.	und
4a}	-an	denk',	Pein,
=15	=15	=15	=15
{8cc	daß	thut	kannſt
8a	mir's	es	mit
8g	was	mich	Luſt
8f#	er-	vom	ein
=16	=16	=16	=16
8a	-ʒäh-	Her-	Häs-
8g	-len	-ʒen	-chen
4g}	kann.	kränk'.	ſein.
=17	=17	=17	=17
!LO:TX:a:t=Einer. Das ʒweite.	!	!	!
{8dd	kommt	Wenn	geh'
8b	ein	dein	dem
8b	Häs-	Windſpiel	Bau'r
8g	-lein	.	nicht
=18	=18	=18	=18
!LO:TX:a:t=Mal Alle.	!	!	!
8g	1._dicht	2._mich	3._mehr
8e	ʒu	er-	in's
4e}	mir,	-tappt,	Kraut,
=19	=19	=19	=19
{8cc	in	haſt	ſonſt
8b	dem	du,	be-
8a	ſchönen	Jä-	-ʒahlt
8g	.	-ger	mit
=20	=20	=20	=20
8f#	Wald-	mich	dei-
8e	-re-	erſchnappt.	-ner
4d}	-vier;	.	Haut;
=21	=21	=21	=21
{8d	kommt	Wenn	ſparſt
8g	das	ich	dir
8g	Häs-	an	man-
8g	-lein	mein	-che
=22	=22	=22	=22
8f#	dicht	Schickſal	Roth
8a	her-	.	und
4a}	-an	denk',	Pein,
=23	=23	=23	=23
{8cc	daß	thut	kannſt
8a	mir's	es	mit
8g	was	mich	Luſt
8f#	er-	vom	ein
=24	=24	=24	=24
8a	-ʒäh-	Her-	Häs-
8g	-len	-ʒen	-chen
4g}	kann.	kränk'.	ſein.
==	==	==	==
!!!AGN: Jugend - Lied, Tier - Geschichte
!!!ONB: ESAC (Essen Associative Code) Database: FINK
!!!AMT: simple duple
!!!AIN: vox
!!!EED: Helmut Schaffrath
!!!EEV: 1.0
!!!GTL: Volkslieder
!!!source: Musikalischer Hausschatz der Deutschen. Eine Sammlung von über 1000 Liedern und Gesängen mit Singstimmen und Klavierbegleitung. Leipzig, Litterarisches Verlags-Haus.
!!!page: 207
!!!URL-scan: https://www.digitale-sammlungen.de/en/view/bsb11144622?page=134,135
!!!ENC: Anna Maria Matuszewska
!!!EEV: 2024/08/09
*-	*-	*-	*-
